;FLAVOR:Marlin
;TIME:647
;Filament used: 0.418278m
;Layer height: 0.2
;MINX:125.2
;MINY:125.2
;MINZ:0.2
;MAXX:134.8
;MAXY:134.8
;MAXZ:10
;Generated with Cura_SteamEngine 4.13.1
M140 S85
M105
M190 S85
M104 S195
M105
M109 S195
M82 ;absolute extrusion mode

G28 ;Home

G92 E0 ;Reset Extruder
G1 Z2.0 F3000 ;Move Z Axis up
G1 X10.1 Y20 Z0.28 F5000.0 ;Move to start position
G1 X10.1 Y200.0 Z0.28 F1500.0 E15 ;Draw the first line
G1 X10.4 Y200.0 Z0.28 F5000.0 ;Move to side a little
G1 X10.4 Y20 Z0.28 F1500.0 E30 ;Draw the second line
G92 E0 ;Reset Extruder
G1 Z2.0 F3000 ;Move Z Axis up

G92 E0
G92 E0
G1 F1500 E-10
;LAYER_COUNT:50
;LAYER:0
M107
;MESH:cubettino.stl
G0 F6000 X134.4 Y134.4 Z0.2
;TYPE:WALL-INNER
G1 F1500 E0
G1 F1200 X125.6 Y134.4 E0.29269
G1 X125.6 Y125.6 E0.58538
G1 X134.4 Y125.6 E0.87807
G1 X134.4 Y133.6 E1.14415
G0 F1080 X134.4 Y134.4
G0 F6000 X134.8 Y134.8
;TYPE:WALL-OUTER
G1 F1200 X125.2 Y134.8 E1.46345
G1 X125.2 Y125.2 E1.78274
G1 X134.8 Y125.2 E2.10204
G1 X134.8 Y134 E2.39473
G0 F1080 X134.8 Y134.8
G0 F6000 X134.53 Y134.53
G0 X134.29 Y134.01
G0 X134.01 Y134.01
;TYPE:SKIN
G1 F1200 X125.99 Y134.01 E2.66148
G1 X125.99 Y125.99 E2.92822
G1 X134.01 Y125.99 E3.19497
G1 X134.01 Y133.21 E3.43511
G0 F1080 X134.01 Y134.01
G0 F6000 X134.29 Y134.01
G0 X134.29 Y126.495
G0 X133.849 Y126.495
G1 F1200 X133.503 Y126.149 E3.45138
G0 F6000 X132.938 Y126.149
G1 F1200 X133.849 Y127.061 E3.49426
G0 F6000 X133.849 Y127.627
G1 F1200 X132.372 Y126.149 E3.56375
G0 F6000 X131.806 Y126.149
G1 F1200 X133.849 Y128.192 E3.65985
G0 F6000 X133.849 Y128.758
G1 F1200 X131.241 Y126.149 E3.78255
G0 F6000 X130.675 Y126.149
G1 F1200 X133.849 Y129.324 E3.93186
G0 F6000 X133.849 Y129.889
G1 F1200 X130.109 Y126.149 E4.10778
G0 F6000 X129.544 Y126.149
G1 F1200 X133.849 Y130.455 E4.3103
G0 F6000 X133.849 Y131.021
G1 F1200 X128.978 Y126.149 E4.53944
G0 F6000 X128.412 Y126.149
G1 F1200 X133.849 Y131.586 E4.79518
G0 F6000 X133.849 Y132.152
G1 F1200 X127.847 Y126.149 E5.07752
G0 F6000 X127.281 Y126.149
G1 F1200 X133.849 Y132.718 E5.38648
G0 F6000 X133.849 Y133.283
G1 F1200 X126.715 Y126.149 E5.72204
G0 F6000 X126.149 Y126.149
G1 F1200 X133.849 Y133.849 E6.08423
G0 F6000 X133.283 Y133.848
G1 F1200 X126.149 Y126.715 E6.41976
G0 F6000 X126.149 Y127.281
G1 F1200 X132.717 Y133.848 E6.72868
G0 F6000 X132.151 Y133.848
G1 F1200 X126.149 Y127.847 E7.01097
G0 F6000 X126.149 Y128.412
G1 F1200 X131.586 Y133.848 E7.26669
G0 F6000 X131.02 Y133.848
G1 F1200 X126.149 Y128.978 E7.49578
G0 F6000 X126.149 Y129.544
G1 F1200 X130.454 Y133.848 E7.69825
G0 F6000 X129.889 Y133.848
G1 F1200 X126.149 Y130.109 E7.87415
G0 F6000 X126.149 Y130.675
G1 F1200 X129.323 Y133.848 E8.02342
G0 F6000 X128.757 Y133.848
G1 F1200 X126.149 Y131.241 E8.14607
G0 F6000 X126.149 Y131.806
G1 F1200 X128.192 Y133.848 E8.24214
G0 F6000 X127.626 Y133.848
G1 F1200 X126.149 Y132.372 E8.31159
G0 F6000 X126.149 Y132.938
G1 F1200 X127.06 Y133.848 E8.35442
G0 F6000 X126.495 Y133.848
G1 F1200 X126.149 Y133.503 E8.37067
G0 F6000 X125.8 Y133.503
;MESH:NONMESH
G0 F300 X125.8 Y133.503 Z0.4
G0 F6000 X125.71 Y133.503
G0 X125.782 Y134.218
G0 X134.4 Y134.4
;TIME_ELAPSED:20.297143
;LAYER:1
M106 S85
;TYPE:WALL-INNER
;MESH:cubettino.stl
G1 F1381.9 X125.6 Y134.4 E8.66336
G1 X125.6 Y125.6 E8.95605
G1 X134.4 Y125.6 E9.24874
G1 X134.4 Y133.6 E9.51482
G0 F1243.7 X134.4 Y134.4
G0 F5400 X134.8 Y134.8
;TYPE:WALL-OUTER
G1 F1381.9 X125.2 Y134.8 E9.83411
G1 X125.2 Y125.2 E10.15341
G1 X134.8 Y125.2 E10.47271
G1 X134.8 Y134 E10.7654
G0 F1243.7 X134.8 Y134.8
G0 F5400 X134.53 Y134.53
G0 X134.29 Y134.01
G0 X134.01 Y134.01
;TYPE:SKIN
G1 F1658.2 X125.99 Y134.01 E11.03214
G1 X125.99 Y125.99 E11.29889
G1 X134.01 Y125.99 E11.56564
G1 X134.01 Y133.21 E11.80578
G0 F1492.4 X134.01 Y134.01
G0 F5400 X133.848 Y133.72
G1 F1658.2 X133.719 Y133.849 E11.81184
G0 F5400 X133.153 Y133.849
G1 F1658.2 X133.848 Y133.154 E11.84453
G0 F5400 X133.848 Y132.588
G1 F1658.2 X132.588 Y133.849 E11.90382
G0 F5400 X132.022 Y133.849
G1 F1658.2 X133.848 Y132.023 E11.98971
G0 F5400 X133.848 Y131.457
G1 F1658.2 X131.456 Y133.849 E12.10223
G0 F5400 X130.891 Y133.849
G1 F1658.2 X133.848 Y130.891 E12.24134
G0 F5400 X133.848 Y130.326
G1 F1658.2 X130.325 Y133.849 E12.40705
G0 F5400 X129.759 Y133.849
G1 F1658.2 X133.848 Y129.76 E12.59938
G0 F5400 X133.848 Y129.194
G1 F1658.2 X129.194 Y133.849 E12.81832
G0 F5400 X128.628 Y133.849
G1 F1658.2 X133.848 Y128.629 E13.06385
G0 F5400 X133.848 Y128.063
G1 F1658.2 X128.062 Y133.849 E13.336
G0 F5400 X127.497 Y133.849
G1 F1658.2 X133.848 Y127.497 E13.63476
G0 F5400 X133.848 Y126.932
G1 F1658.2 X126.931 Y133.849 E13.96011
G0 F5400 X126.365 Y133.849
G1 F1658.2 X133.848 Y126.366 E14.31209
G0 F5400 X133.499 Y126.149
G1 F1658.2 X126.149 Y133.499 E14.65781
G0 F5400 X126.149 Y132.933
G1 F1658.2 X132.933 Y126.149 E14.97691
G0 F5400 X132.368 Y126.149
G1 F1658.2 X126.149 Y132.368 E15.26943
G0 F5400 X126.149 Y131.802
G1 F1658.2 X131.802 Y126.149 E15.53533
G0 F5400 X131.236 Y126.149
G1 F1658.2 X126.149 Y131.236 E15.77461
G0 F5400 X126.149 Y130.671
G1 F1658.2 X130.671 Y126.149 E15.98731
G0 F5400 X130.105 Y126.149
G1 F1658.2 X126.149 Y130.105 E16.17339
G0 F5400 X126.149 Y129.539
G1 F1658.2 X129.539 Y126.149 E16.33285
G0 F5400 X128.974 Y126.149
G1 F1658.2 X126.149 Y128.974 E16.46572
G0 F5400 X126.149 Y128.408
G1 F1658.2 X128.408 Y126.149 E16.57198
G0 F5400 X127.842 Y126.149
G1 F1658.2 X126.149 Y127.842 E16.65161
G0 F5400 X126.149 Y127.277
G1 F1658.2 X127.277 Y126.149 E16.70467
G0 F5400 X126.711 Y126.149
G1 F1658.2 X126.149 Y126.711 E16.73111
G0 F5400 X125.8 Y126.711
;MESH:NONMESH
G0 F300 X125.8 Y126.711 Z0.6
G0 F5400 X125.71 Y126.711
G0 X125.782 Y134.218
G0 X134.4 Y134.4
;TIME_ELAPSED:33.159768
;LAYER:2
M106 S170
;TYPE:WALL-INNER
;MESH:cubettino.stl
G1 F1313.9 X125.6 Y134.4 E17.0238
G1 X125.6 Y125.6 E17.31649
G1 X134.4 Y125.6 E17.60917
G1 X134.4 Y133.6 E17.87526
G0 F1182.5 X134.4 Y134.4
G0 F4800 X134.8 Y134.8
;TYPE:WALL-OUTER
G1 F1313.9 X125.2 Y134.8 E18.19455
G1 X125.2 Y125.2 E18.51385
G1 X134.8 Y125.2 E18.83315
G1 X134.8 Y134 E19.12584
G0 F1182.5 X134.8 Y134.8
G0 F4800 X134.53 Y134.53
G0 X134.29 Y134.01
G0 X134.01 Y134.01
;TYPE:SKIN
G1 F1751.8 X125.99 Y134.01 E19.39258
G1 X125.99 Y125.99 E19.65933
G1 X134.01 Y125.99 E19.92608
G1 X134.01 Y133.21 E20.16621
G0 F1576.7 X134.01 Y134.01
G0 F4800 X134.29 Y134.01
G0 X134.29 Y126.495
G0 X133.849 Y126.495
G1 F1751.8 X133.503 Y126.149 E20.18249
G0 F4800 X132.938 Y126.149
G1 F1751.8 X133.849 Y127.061 E20.22536
G0 F4800 X133.849 Y127.627
G1 F1751.8 X132.372 Y126.149 E20.29486
G0 F4800 X131.806 Y126.149
G1 F1751.8 X133.849 Y128.192 E20.39096
G0 F4800 X133.849 Y128.758
G1 F1751.8 X131.241 Y126.149 E20.51365
G0 F4800 X130.675 Y126.149
G1 F1751.8 X133.849 Y129.324 E20.66297
G0 F4800 X133.849 Y129.889
G1 F1751.8 X130.109 Y126.149 E20.83889
G0 F4800 X129.544 Y126.149
G1 F1751.8 X133.849 Y130.455 E21.04141
G0 F4800 X133.849 Y131.021
G1 F1751.8 X128.978 Y126.149 E21.27055
G0 F4800 X128.412 Y126.149
G1 F1751.8 X133.849 Y131.586 E21.52629
G0 F4800 X133.849 Y132.152
G1 F1751.8 X127.847 Y126.149 E21.80863
G0 F4800 X127.281 Y126.149
G1 F1751.8 X133.849 Y132.718 E22.11759
G0 F4800 X133.849 Y133.283
G1 F1751.8 X126.715 Y126.149 E22.45315
G0 F4800 X126.149 Y126.149
G1 F1751.8 X133.849 Y133.849 E22.81533
G0 F4800 X133.283 Y133.848
G1 F1751.8 X126.149 Y126.715 E23.15087
G0 F4800 X126.149 Y127.281
G1 F1751.8 X132.717 Y133.848 E23.45979
G0 F4800 X132.151 Y133.848
G1 F1751.8 X126.149 Y127.847 E23.74208
G0 F4800 X126.149 Y128.412
G1 F1751.8 X131.586 Y133.848 E23.9978
G0 F4800 X131.02 Y133.848
G1 F1751.8 X126.149 Y128.978 E24.22689
G0 F4800 X126.149 Y129.544
G1 F1751.8 X130.454 Y133.848 E24.42936
G0 F4800 X129.889 Y133.848
G1 F1751.8 X126.149 Y130.109 E24.60525
G0 F4800 X126.149 Y130.675
G1 F1751.8 X129.323 Y133.848 E24.75453
G0 F4800 X128.757 Y133.848
G1 F1751.8 X126.149 Y131.241 E24.87717
G0 F4800 X126.149 Y131.806
G1 F1751.8 X128.192 Y133.848 E24.97325
G0 F4800 X127.626 Y133.848
G1 F1751.8 X126.149 Y132.372 E25.0427
G0 F4800 X126.149 Y132.938
G1 F1751.8 X127.06 Y133.848 E25.08552
G0 F4800 X126.495 Y133.848
G1 F1751.8 X126.149 Y133.503 E25.10178
G0 F4800 X125.8 Y133.503
;MESH:NONMESH
G0 F300 X125.8 Y133.503 Z0.8
G0 F4800 X125.71 Y133.503
G0 X125.782 Y134.218
G0 X134.4 Y134.4
;TIME_ELAPSED:45.953674
;LAYER:3
M106 S255
;TYPE:WALL-INNER
;MESH:cubettino.stl
G1 F1293.9 X125.6 Y134.4 E25.39446
G1 X125.6 Y125.6 E25.68715
G1 X134.4 Y125.6 E25.97984
G1 X134.4 Y133.6 E26.24592
G0 F1164.5 X134.4 Y134.4
G0 F4800 X134.8 Y134.8
;TYPE:WALL-OUTER
G1 F1293.9 X125.2 Y134.8 E26.56522
G1 X125.2 Y125.2 E26.88452
G1 X134.8 Y125.2 E27.20382
G1 X134.8 Y134 E27.49651
G0 F1164.5 X134.8 Y134.8
G0 F4800 X134.53 Y134.53
G0 X134.29 Y134.01
G0 X134.01 Y134.01
;TYPE:SKIN
G1 F1725.2 X125.99 Y134.01 E27.76325
G1 X125.99 Y125.99 E28.03
G1 X134.01 Y125.99 E28.29674
G1 X134.01 Y133.21 E28.53688
G0 F1552.7 X134.01 Y134.01
G0 F4800 X133.848 Y133.72
G1 F1725.2 X133.719 Y133.849 E28.54295
G0 F4800 X133.153 Y133.849
G1 F1725.2 X133.848 Y133.154 E28.57564
G0 F4800 X133.848 Y132.588
G1 F1725.2 X132.588 Y133.849 E28.63493
G0 F4800 X132.022 Y133.849
G1 F1725.2 X133.848 Y132.023 E28.72082
G0 F4800 X133.848 Y131.457
G1 F1725.2 X131.456 Y133.849 E28.83333
G0 F4800 X130.891 Y133.849
G1 F1725.2 X133.848 Y130.891 E28.97244
G0 F4800 X133.848 Y130.326
G1 F1725.2 X130.325 Y133.849 E29.13816
G0 F4800 X129.759 Y133.849
G1 F1725.2 X133.848 Y129.76 E29.33049
G0 F4800 X133.848 Y129.194
G1 F1725.2 X129.194 Y133.849 E29.54942
G0 F4800 X128.628 Y133.849
G1 F1725.2 X133.848 Y128.629 E29.79496
G0 F4800 X133.848 Y128.063
G1 F1725.2 X128.062 Y133.849 E30.06711
G0 F4800 X127.497 Y133.849
G1 F1725.2 X133.848 Y127.497 E30.36587
G0 F4800 X133.848 Y126.932
G1 F1725.2 X126.931 Y133.849 E30.69122
G0 F4800 X126.365 Y133.849
G1 F1725.2 X133.848 Y126.366 E31.0432
G0 F4800 X133.499 Y126.149
G1 F1725.2 X126.149 Y133.499 E31.38892
G0 F4800 X126.149 Y132.933
G1 F1725.2 X132.933 Y126.149 E31.70802
G0 F4800 X132.368 Y126.149
G1 F1725.2 X126.149 Y132.368 E32.00054
G0 F4800 X126.149 Y131.802
G1 F1725.2 X131.802 Y126.149 E32.26644
G0 F4800 X131.236 Y126.149
G1 F1725.2 X126.149 Y131.236 E32.50572
G0 F4800 X126.149 Y130.671
G1 F1725.2 X130.671 Y126.149 E32.71842
G0 F4800 X130.105 Y126.149
G1 F1725.2 X126.149 Y130.105 E32.9045
G0 F4800 X126.149 Y129.539
G1 F1725.2 X129.539 Y126.149 E33.06395
G0 F4800 X128.974 Y126.149
G1 F1725.2 X126.149 Y128.974 E33.19683
G0 F4800 X126.149 Y128.408
G1 F1725.2 X128.408 Y126.149 E33.30309
G0 F4800 X127.842 Y126.149
G1 F1725.2 X126.149 Y127.842 E33.38272
G0 F4800 X126.149 Y127.277
G1 F1725.2 X127.277 Y126.149 E33.43578
G0 F4800 X126.711 Y126.149
G1 F1725.2 X126.149 Y126.711 E33.46221
G0 F4800 X125.8 Y126.711
;MESH:NONMESH
G0 F300 X125.8 Y126.711 Z1
G0 F4800 X125.71 Y126.711
G0 X125.782 Y134.218
G0 X134.4 Y134.4
;TIME_ELAPSED:58.769480
;LAYER:4
;TYPE:WALL-INNER
;MESH:cubettino.stl
G1 F1313.9 X125.6 Y134.4 E33.7549
G1 X125.6 Y125.6 E34.04759
G1 X134.4 Y125.6 E34.34028
G1 X134.4 Y133.6 E34.60636
G0 F1182.5 X134.4 Y134.4
G0 F4800 X134.8 Y134.8
;TYPE:WALL-OUTER
G1 F1313.9 X125.2 Y134.8 E34.92566
G1 X125.2 Y125.2 E35.24496
G1 X134.8 Y125.2 E35.56425
G1 X134.8 Y134 E35.85694
G0 F1182.5 X134.8 Y134.8
G0 F4800 X134.53 Y134.53
G0 X134.29 Y134.01
G0 X134.01 Y134.01
;TYPE:SKIN
G1 F1751.8 X125.99 Y134.01 E36.12369
G1 X125.99 Y125.99 E36.39044
G1 X134.01 Y125.99 E36.65718
G1 X134.01 Y133.21 E36.89732
G0 F1576.7 X134.01 Y134.01
G0 F4800 X134.29 Y134.01
G0 X134.29 Y126.495
G0 X133.849 Y126.495
G1 F1751.8 X133.503 Y126.149 E36.9136
G0 F4800 X132.938 Y126.149
G1 F1751.8 X133.849 Y127.061 E36.95647
G0 F4800 X133.849 Y127.627
G1 F1751.8 X132.372 Y126.149 E37.02597
G0 F4800 X131.806 Y126.149
G1 F1751.8 X133.849 Y128.192 E37.12206
G0 F4800 X133.849 Y128.758
G1 F1751.8 X131.241 Y126.149 E37.24476
G0 F4800 X130.675 Y126.149
G1 F1751.8 X133.849 Y129.324 E37.39408
G0 F4800 X133.849 Y129.889
G1 F1751.8 X130.109 Y126.149 E37.57
G0 F4800 X129.544 Y126.149
G1 F1751.8 X133.849 Y130.455 E37.77251
G0 F4800 X133.849 Y131.021
G1 F1751.8 X128.978 Y126.149 E38.00165
G0 F4800 X128.412 Y126.149
G1 F1751.8 X133.849 Y131.586 E38.25739
G0 F4800 X133.849 Y132.152
G1 F1751.8 X127.847 Y126.149 E38.53973
G0 F4800 X127.281 Y126.149
G1 F1751.8 X133.849 Y132.718 E38.84869
G0 F4800 X133.849 Y133.283
G1 F1751.8 X126.715 Y126.149 E39.18426
G0 F4800 X126.149 Y126.149
G1 F1751.8 X133.849 Y133.849 E39.54644
G0 F4800 X133.283 Y133.848
G1 F1751.8 X126.149 Y126.715 E39.88198
G0 F4800 X126.149 Y127.281
G1 F1751.8 X132.717 Y133.848 E40.19089
G0 F4800 X132.151 Y133.848
G1 F1751.8 X126.149 Y127.847 E40.47319
G0 F4800 X126.149 Y128.412
G1 F1751.8 X131.586 Y133.848 E40.7289
G0 F4800 X131.02 Y133.848
G1 F1751.8 X126.149 Y128.978 E40.958
G0 F4800 X126.149 Y129.544
G1 F1751.8 X130.454 Y133.848 E41.16047
G0 F4800 X129.889 Y133.848
G1 F1751.8 X126.149 Y130.109 E41.33636
G0 F4800 X126.149 Y130.675
G1 F1751.8 X129.323 Y133.848 E41.48563
G0 F4800 X128.757 Y133.848
G1 F1751.8 X126.149 Y131.241 E41.60828
G0 F4800 X126.149 Y131.806
G1 F1751.8 X128.192 Y133.848 E41.70435
G0 F4800 X127.626 Y133.848
G1 F1751.8 X126.149 Y132.372 E41.7738
G0 F4800 X126.149 Y132.938
G1 F1751.8 X127.06 Y133.848 E41.81663
G0 F4800 X126.495 Y133.848
G1 F1751.8 X126.149 Y133.503 E41.83288
G0 F4800 X125.8 Y133.503
;MESH:NONMESH
G0 F300 X125.8 Y133.503 Z1.2
G0 F4800 X125.71 Y133.503
G0 X125.782 Y134.218
G0 X134.4 Y134.4
;TIME_ELAPSED:71.563386
;LAYER:5
;TYPE:WALL-INNER
;MESH:cubettino.stl
G1 F1293.9 X125.6 Y134.4 E42.12557
G1 X125.6 Y125.6 E42.41826
G1 X134.4 Y125.6 E42.71095
G1 X134.4 Y133.6 E42.97703
G0 F1164.5 X134.4 Y134.4
G0 F4800 X134.8 Y134.8
;TYPE:WALL-OUTER
G1 F1293.9 X125.2 Y134.8 E43.29633
G1 X125.2 Y125.2 E43.61563
G1 X134.8 Y125.2 E43.93492
G1 X134.8 Y134 E44.22761
G0 F1164.5 X134.8 Y134.8
G0 F4800 X134.53 Y134.53
G0 X134.29 Y134.01
G0 X134.01 Y134.01
;TYPE:SKIN
G1 F1725.2 X125.99 Y134.01 E44.49436
G1 X125.99 Y125.99 E44.76111
G1 X134.01 Y125.99 E45.02785
G1 X134.01 Y133.21 E45.26799
G0 F1552.7 X134.01 Y134.01
G0 F4800 X133.848 Y133.72
G1 F1725.2 X133.719 Y133.849 E45.27406
G0 F4800 X133.153 Y133.849
G1 F1725.2 X133.848 Y133.154 E45.30675
G0 F4800 X133.848 Y132.588
G1 F1725.2 X132.588 Y133.849 E45.36604
G0 F4800 X132.022 Y133.849
G1 F1725.2 X133.848 Y132.023 E45.45193
G0 F4800 X133.848 Y131.457
G1 F1725.2 X131.456 Y133.849 E45.56444
G0 F4800 X130.891 Y133.849
G1 F1725.2 X133.848 Y130.891 E45.70355
G0 F4800 X133.848 Y130.326
G1 F1725.2 X130.325 Y133.849 E45.86926
G0 F4800 X129.759 Y133.849
G1 F1725.2 X133.848 Y129.76 E46.0616
G0 F4800 X133.848 Y129.194
G1 F1725.2 X129.194 Y133.849 E46.28053
G0 F4800 X128.628 Y133.849
G1 F1725.2 X133.848 Y128.629 E46.52606
G0 F4800 X133.848 Y128.063
G1 F1725.2 X128.062 Y133.849 E46.79822
G0 F4800 X127.497 Y133.849
G1 F1725.2 X133.848 Y127.497 E47.09697
G0 F4800 X133.848 Y126.932
G1 F1725.2 X126.931 Y133.849 E47.42233
G0 F4800 X126.365 Y133.849
G1 F1725.2 X133.848 Y126.366 E47.77431
G0 F4800 X133.499 Y126.149
G1 F1725.2 X126.149 Y133.499 E48.12003
G0 F4800 X126.149 Y132.933
G1 F1725.2 X132.933 Y126.149 E48.43913
G0 F4800 X132.368 Y126.149
G1 F1725.2 X126.149 Y132.368 E48.73165
G0 F4800 X126.149 Y131.802
G1 F1725.2 X131.802 Y126.149 E48.99755
G0 F4800 X131.236 Y126.149
G1 F1725.2 X126.149 Y131.236 E49.23682
G0 F4800 X126.149 Y130.671
G1 F1725.2 X130.671 Y126.149 E49.44953
G0 F4800 X130.105 Y126.149
G1 F1725.2 X126.149 Y130.105 E49.6356
G0 F4800 X126.149 Y129.539
G1 F1725.2 X129.539 Y126.149 E49.79506
G0 F4800 X128.974 Y126.149
G1 F1725.2 X126.149 Y128.974 E49.92794
G0 F4800 X126.149 Y128.408
